src/assets/download_icon.svg

<?xml version="1.0" encoding="utf-8"?><!-- Uploaded to: SVG Repo, www.svgrepo.com, Generator: SVG Repo Mixer Tools -->
<svg width="800px" height="800px" viewBox="0 0 24 24" fill="none" xmlns="http://www.w3.org/2000/svg">
<path d="M17 17H17.01M17.4 14H18C18.9319 14 19.3978 14 19.7654 14.1522C20.2554 14.3552 20.6448 14.7446 20.8478 15.2346C21 15.6022 21 16.0681 21 17C21 17.9319 21 18.3978 20.8478 18.7654C20.6448 19.2554 20.2554 19.6448 19.7654 19.8478C19.3978 20 18.9319 20 18 20H6C5.06812 20 4.60218 20 4.23463 19.8478C3.74458 19.6448 3.35523 19.2554 3.15224 18.7654C3 18.3978 3 17.9319 3 17C3 16.0681 3 15.6022 3.15224 15.2346C3.35523 14.7446 3.74458 14.3552 4.23463 14.1522C4.60218 14 5.06812 14 6 14H6.6M12 15V4M12 15L9 12M12 15L15 12" stroke="#000000" stroke-width="2" stroke-linecap="round" stroke-linejoin="round"/>
</svg>

<svg width="800" height="800" viewBox="0 0 24 24" fill="none" xmlns="http://www.w3.org/2000/svg"><path d="M17 17h.01m.39-3h.6c.932 0 1.398 0 1.765.152a2 2 0 0 1 1.083 1.083C21 15.602 21 16.068 21 17c0 .932 0 1.398-.152 1.765a2 2 0 0 1-1.083 1.083C19.398 20 18.932 20 18 20H6c-.932 0-1.398 0-1.765-.152a2 2 0 0 1-1.083-1.083C3 18.398 3 17.932 3 17c0-.932 0-1.398.152-1.765a2 2 0 0 1 1.083-1.083C4.602 14 5.068 14 6 14h.6m5.4 1V4m0 11-3-3m3 3 3-3" stroke="white" stroke-width="2" stroke-linecap="round" stroke-linejoin="round"/></svg>
